X:1
T:Flute
T:Jingle Bells
T:MS
L:1/8
M:4/4
K:F
V:1 treble nm="Flute" snm="Flu"
V:1
 aa a2 aa a2 | ac' f>g a4 | bbbb ba aa/a/ | c'c'bg f2 z2 |: cagf c3 c/c/ | cagf d4 | dbag e4 | %7
 c'c'bg a4 | cagf c4 | cagf d3 d | dbag c'c'c'c' | d'c'bg f z c'2 | aa a2 aa a2 | ac' f>g a4 | %14
 bbbb ba aa/a/ | agga g z c'2 | aa a2 aa a2 | ac' f>g a4 |1 bbbb ba aa/a/ | c'c'bg f2 z2 :|2 %20
 bbbb ba aa/a/ | c'2 c'2 d'2 e'2 | f'6 z2 |] %23

